src/img/dis-2.svg

<svg width="23" height="22" viewBox="0 0 23 22" fill="none" xmlns="http://www.w3.org/2000/svg">
<g clip-path="url(#clip0)">
<path d="M8.48826 9.0144C7.25945 9.0144 6.2597 10.1158 6.2597 11.4696C6.2597 12.8233 7.25945 13.9247 8.48826 13.9247C9.71711 13.9247 10.7169 12.8233 10.7169 11.4696C10.7169 10.1158 9.71711 9.0144 8.48826 9.0144ZM8.48826 12.6796C7.94601 12.6796 7.50482 12.1368 7.50482 11.4696C7.50482 10.8024 7.94601 10.2595 8.48826 10.2595C9.03055 10.2595 9.47178 10.8024 9.47178 11.4696C9.47178 12.1368 9.03055 12.6796 8.48826 12.6796Z" fill="white"/>
<path d="M14.3712 9.0144C13.1424 9.0144 12.1426 10.1158 12.1426 11.4696C12.1426 12.8233 13.1424 13.9247 14.3712 13.9247C15.6 13.9247 16.5998 12.8233 16.5998 11.4696C16.5998 10.1158 15.6 9.0144 14.3712 9.0144ZM14.3712 12.6796C13.8289 12.6796 13.3877 12.1368 13.3877 11.4696C13.3877 10.8024 13.8289 10.2595 14.3712 10.2595C14.9135 10.2595 15.3547 10.8024 15.3547 11.4696C15.3547 12.1368 14.9135 12.6796 14.3712 12.6796Z" fill="white"/>
<path d="M22.0538 15.6316C22.0391 15.3684 21.6668 9.14213 19.3025 5.41761C19.2541 5.34145 19.1897 5.27666 19.1139 5.22785C16.1904 3.34528 14.199 3.35067 14.1157 3.35034C13.8742 3.35354 13.6662 3.49399 13.5657 3.69694L12.5614 5.62164C12.1872 5.59716 11.8095 5.58446 11.4298 5.58446C11.0501 5.58446 10.6723 5.59716 10.2982 5.62164L9.29497 3.69918C9.1949 3.49507 8.98626 3.35358 8.74384 3.35038C8.66004 3.34989 6.66889 3.34549 3.74569 5.2279C3.66986 5.27675 3.60549 5.34149 3.55714 5.41765C1.19274 9.14213 0.82041 15.3684 0.805718 15.6316C0.796504 15.7966 0.853281 15.9585 0.963557 16.0817C1.07321 16.204 3.67795 19.0662 7.27829 19.0662C7.29439 19.0662 7.31096 19.0661 7.3271 19.066C7.51632 19.0646 7.69458 18.9773 7.81166 18.8288L9.47235 16.7212C10.1102 16.7941 10.7653 16.832 11.4298 16.832C12.0942 16.832 12.7494 16.7941 13.3872 16.7212L15.0479 18.8288C15.1649 18.9773 15.3432 19.0646 15.5324 19.066C15.5488 19.0661 15.5649 19.0662 15.5812 19.0662C19.1812 19.0662 21.7864 16.204 21.896 16.0817C22.0062 15.9585 22.063 15.7966 22.0538 15.6316ZM15.8344 17.8152L14.7962 16.4975C16.3766 16.1724 17.7952 15.6191 18.9025 14.8763C19.188 14.6847 19.2642 14.298 19.0726 14.0124C18.8811 13.7269 18.4942 13.6506 18.2088 13.8423C16.5562 14.9511 14.0853 15.5869 11.4298 15.5869C8.77434 15.5869 6.30345 14.9511 4.65072 13.8424C4.36513 13.6509 3.97844 13.7271 3.7869 14.0126C3.59536 14.2982 3.67156 14.6849 3.95711 14.8764C5.06443 15.6192 6.48295 16.1725 8.06338 16.4976L7.02516 17.8152C4.58751 17.7021 2.64762 15.9974 2.06835 15.4317C2.16505 14.2254 2.66684 9.25016 4.5363 6.20042C6.37205 5.04163 7.75741 4.71935 8.37615 4.62978L8.96684 5.76164C7.57807 5.96442 6.27697 6.33709 5.16869 6.85887C4.85762 7.0053 4.72418 7.37622 4.87061 7.68733C5.01708 7.99836 5.388 8.13176 5.69903 7.98541C7.28223 7.24005 9.31746 6.82957 11.4298 6.82957C13.5422 6.82957 15.5775 7.24013 17.1606 7.98558C17.2463 8.02592 17.3365 8.04506 17.4254 8.04506C17.659 8.04506 17.8829 7.91287 17.989 7.68754C18.1355 7.37651 18.002 7.00555 17.691 6.85908C16.5826 6.33725 15.2815 5.96451 13.8926 5.76172L14.4833 4.62987C15.102 4.71943 16.4874 5.04171 18.3233 6.2005C20.1906 9.24705 20.6941 14.2274 20.7911 15.4328C20.2134 15.9997 18.2821 17.703 15.8344 17.8152Z" fill="white"/>
</g>
<defs>
<clipPath id="clip0">
<rect width="21.25" height="21.25" fill="white" transform="translate(0.804779 0.583252)"/>
</clipPath>
</defs>
</svg>

<svg width="23" height="22" fill="none" xmlns="http://www.w3.org/2000/svg"><g clip-path="url(#a)" fill="#fff"><path d="M8.488 9.014c-1.229 0-2.228 1.102-2.228 2.456 0 1.353 1 2.455 2.228 2.455 1.23 0 2.229-1.102 2.229-2.455 0-1.354-1-2.456-2.229-2.456Zm0 3.666c-.542 0-.983-.543-.983-1.21 0-.668.441-1.21.983-1.21.543 0 .984.542.984 1.21 0 .667-.441 1.21-.984 1.21Zm5.883-3.666c-1.229 0-2.228 1.102-2.228 2.456 0 1.353 1 2.455 2.228 2.455 1.229 0 2.229-1.102 2.229-2.455 0-1.354-1-2.456-2.229-2.456Zm0 3.666c-.542 0-.983-.543-.983-1.21 0-.668.44-1.21.983-1.21.543 0 .984.542.984 1.21 0 .667-.441 1.21-.984 1.21Z"/><path d="M22.054 15.632c-.015-.264-.387-6.49-2.752-10.214a.624.624 0 0 0-.188-.19C16.19 3.345 14.199 3.35 14.116 3.35a.623.623 0 0 0-.55.347L12.56 5.622a17.341 17.341 0 0 0-2.263 0L9.295 3.699a.623.623 0 0 0-.551-.349c-.084 0-2.075-.005-4.998 1.878a.623.623 0 0 0-.189.19C1.193 9.142.82 15.368.806 15.632a.623.623 0 0 0 .158.45c.11.122 2.714 2.984 6.314 2.984h.05a.623.623 0 0 0 .484-.237l1.66-2.108a17.26 17.26 0 0 0 3.915 0l1.66 2.108a.623.623 0 0 0 .485.237h.05c3.6 0 6.204-2.862 6.314-2.984a.623.623 0 0 0 .158-.45Zm-6.22 2.183-1.038-1.318c1.58-.325 3-.878 4.107-1.62a.623.623 0 0 0-.694-1.035c-1.653 1.11-4.124 1.745-6.78 1.745-2.655 0-5.126-.636-6.778-1.745a.623.623 0 0 0-.694 1.034c1.107.743 2.526 1.296 4.106 1.622l-1.038 1.317c-2.437-.113-4.377-1.818-4.957-2.383.097-1.207.599-6.182 2.468-9.232 1.836-1.158 3.221-1.48 3.84-1.57l.59 1.132c-1.388.202-2.689.575-3.797 1.097a.623.623 0 0 0 .53 1.126c1.583-.745 3.618-1.155 5.73-1.155 2.113 0 4.149.41 5.732 1.156a.62.62 0 0 0 .828-.298.623.623 0 0 0-.298-.829c-1.108-.522-2.41-.894-3.798-1.097l.59-1.132c.619.09 2.004.412 3.84 1.57 1.868 3.047 2.371 8.027 2.468 9.233-.578.567-2.509 2.27-4.957 2.382Z"/></g><defs><clipPath id="a"><path fill="#fff" transform="translate(.805 .583)" d="M0 0h21.25v21.25H0z"/></clipPath></defs></svg>
